source/img/whatwedo/content-3.svg

<svg width="284" height="216" fill="none" xmlns="http://www.w3.org/2000/svg"><path d="M208 138.5a65.142 65.142 0 01-9.68 34.116 65.915 65.915 0 01-26.173 24.14 42.54 42.54 0 01-1.468.727l-.102.051-.351.167a64.15 64.15 0 01-6.548 2.662c-1.101.38-2.214.732-3.338 1.056l-1.345.368a66.803 66.803 0 01-44.914-3.874 66.133 66.133 0 01-1.717-.824l-1.019-.505a66.134 66.134 0 01-24.847-22.434 55.018 55.018 0 01-1.865-3.031 80.893 80.893 0 01-1.529-2.733 64.78 64.78 0 01-7.261-29.886c0-1.226.034-2.445.102-3.657.955-17.033 8.575-33.023 21.24-44.572 12.664-11.548 29.374-17.743 46.574-17.266 17.201.476 33.535 7.586 45.529 19.818 11.995 12.231 18.702 28.618 18.697 45.677H208z" fill="url(#paint0_linear)"/><path d="M128.945 136.171s-14.778-6.946-16.062-16.504c-1.284-9.557-.382-18.691 6.981-21.247 0 0 4.658-14.72 21.168-8.805 16.51 5.915 13.906 23.677 22.931 25.804 9.024 2.127 25.876-6.83 29.091 4.097s-7.358 10.26-14.385 19.535c-7.027 9.274 3.827 14.144 1.839 20.53-1.987 6.385-9.493 10.775-9.493 10.775l-42.07-34.185z" fill="url(#paint1_linear)"/><path d="M108.71 157.136l4.173 11.25h.454l6.527-29.335c-4.122 3.581-11.154 18.085-11.154 18.085z" fill="url(#paint2_linear)"/><path d="M101.382 172.654l-2.645 1.319c-3.281 1.95-8.183 1.394-8.183 1.394 2.65 2.955 17.57 6.3 21.763 6.214l.775-10.467h-9.295l-2.415 1.54z" fill="url(#paint3_linear)"/><path d="M170.679 197.468l-.102.051-.351.166a64.15 64.15 0 01-6.548 2.663c-1.101.38-2.214.732-3.338 1.055l-1.345.369a66.803 66.803 0 01-44.914-3.874 66.133 66.133 0 01-1.717-.824l-1.019-.505c.142-4.334.362-9.522.683-14.993.203-3.42.453-6.951.749-10.457.076-.915.158-1.824.239-2.733 1.203-12.922 3.129-24.905 6.217-28.714l.046-.05a3.155 3.155 0 011.579-1.137c4.459-1.051 7.603-1.404 8.097-2.314.495-.909 0-2.697 0-2.697l.887-.122c1.289-.192 3.791-.596 6.161-1.202a.072.072 0 00.046 0c2.094-.54 4.076-1.238 5.044-2.076l1.988 5.238s14.945-1.874 20.78 3.759a.557.557 0 01.097.091c.061.055.119.114.173.177.347.364.656.761.922 1.187 1.901 3.031 3.246 15.195 4.179 28.39.214 3.031.408 6.163.576 9.23.387 7.082.677 13.942.871 19.322z" fill="url(#paint4_linear)"/><path opacity=".15" d="M170.577 197.534l-.351.167a64.17 64.17 0 01-6.548 2.662 67.4 67.4 0 01-3.338 1.056c-6.884-7.27-9.615-16.706-9.615-16.706l19.073-6.567.779 19.388z" fill="#000"/><path d="M163.856 139.051c6.904 6.718 8.407 20.823 7.134 31.32-1.274 10.497-3.639 20.328-8.551 20.025-4.912-.303-21.912-11.993-28.48-18.368l3.837-7.3 13.881 5.734v-15.281l12.179-16.13z" fill="url(#paint5_linear)"/><path d="M163.856 139.051c6.904 6.718 8.407 20.823 7.134 31.32-1.274 10.497-3.639 20.328-8.551 20.025-4.912-.303-21.912-11.993-28.48-18.368l3.837-7.3 13.881 5.734v-15.281l12.179-16.13z" fill="url(#paint6_linear)"/><g filter="url(#filter0_d)"><path d="M128.145 168.386h-63.69v2.733h63.69v-2.733z" fill="url(#paint7_linear)"/><path d="M100.435 134.843H52l12.454 33.543h48.43l-12.449-33.543z" fill="url(#paint8_linear)"/></g><path d="M78.997 171.119s8.357 4.147 13.667 4.248c5.31.101 11.139-4.248 11.139-4.248H78.997z" fill="url(#paint9_linear)"/><path d="M137.796 164.728s-7.348-3.677-10.512-4.081c-3.165-.405-12.989 7.739-12.989 7.739h13.86l5.82 3.642 3.821-7.3z" fill="url(#paint10_linear)"/><path d="M140.471 121.789c.037 2.766.241 5.528.612 8.27-3.287 1.833-7.134 2.818-11.252 3.298l-.239-3.298-.143-2.021v-.066a6.109 6.109 0 01-2.303-.505c-4.973-2.127-6.043-12.523-6.043-12.523 1.992-.081 4.586-3.642 4.586-3.642 1.452 2.202 8.188 6.456 12.097 5.314 3.908-1.142 3.603-3.875 3.603-3.875a4.186 4.186 0 011.767 1.395 4.13 4.13 0 01.78 2.101c.209 2.668-3.465 5.552-3.465 5.552z" fill="url(#paint11_linear)"/><path opacity=".15" d="M137.134 124.724c-.922 1.546-5.095 4.006-7.536 5.345l-.143-2.021c.153 0 .301-.05.443-.081a16.89 16.89 0 005.702-2.111 8.905 8.905 0 001.463-1.071l.071-.061zm8.815 43.379l10.813 4.385-5.095-3.643v-13.639s-1.595 11.851-5.718 12.897z" fill="#000"/><defs><linearGradient id="paint0_linear" x1="142.193" y1="80.094" x2="139.971" y2="209.225" gradientUnits="userSpaceOnUse"><stop stop-color="#fff" stop-opacity="0"/><stop offset="1" stop-color="#64B5F6" stop-opacity=".6"/></linearGradient><linearGradient id="paint1_linear" x1="112.399" y1="129.281" x2="193.655" y2="129.281" gradientUnits="userSpaceOnUse"><stop stop-color="#EF9A9A"/><stop offset="1" stop-color="#D81B60"/></linearGradient><linearGradient id="paint2_linear" x1="113.683" y1="154.883" x2="111.274" y2="182.514" gradientUnits="userSpaceOnUse"><stop stop-color="#7E57C2"/><stop offset="1" stop-color="#4527A0"/></linearGradient><linearGradient id="paint3_linear" x1="6850.02" y1="2599.43" x2="6826.49" y2="3175.43" gradientUnits="userSpaceOnUse"><stop stop-color="#7E57C2"/><stop offset="1" stop-color="#4527A0"/></linearGradient><linearGradient id="paint4_linear" x1="20378.2" y1="14930" x2="24505.7" y2="22564.9" gradientUnits="userSpaceOnUse"><stop stop-color="#7E57C2"/><stop offset="1" stop-color="#4527A0"/></linearGradient><linearGradient id="paint5_linear" x1="13997.4" y1="9842.53" x2="17661.5" y2="15998.1" gradientUnits="userSpaceOnUse"><stop stop-color="#7E57C2"/><stop offset="1" stop-color="#4527A0"/></linearGradient><linearGradient id="paint6_linear" x1="155.758" y1="144.749" x2="150.038" y2="191.812" gradientUnits="userSpaceOnUse"><stop offset=".14" stop-color="#7E57C2" stop-opacity="0"/><stop offset=".26" stop-color="#724DBB" stop-opacity=".21"/><stop offset=".48" stop-color="#5F3DAF" stop-opacity=".55"/><stop offset=".66" stop-color="#5131A7" stop-opacity=".79"/><stop offset=".81" stop-color="#482AA2" stop-opacity=".94"/><stop offset=".91" stop-color="#4527A0"/></linearGradient><linearGradient id="paint7_linear" x1="64.454" y1="169.75" x2="128.145" y2="169.75" gradientUnits="userSpaceOnUse"><stop stop-color="#D2D4D5"/><stop offset="1" stop-color="#AAACAE"/></linearGradient><linearGradient id="paint8_linear" x1="574.989" y1="4270.71" x2="4179.02" y2="8404.05" gradientUnits="userSpaceOnUse"><stop stop-color="#D2D4D5"/><stop offset="1" stop-color="#AAACAE"/></linearGradient><linearGradient id="paint9_linear" x1="80.577" y1="166.557" x2="100.884" y2="175.338" gradientUnits="userSpaceOnUse"><stop stop-color="#FFF8E1"/><stop offset="1" stop-color="#FFCC80"/></linearGradient><linearGradient id="paint10_linear" x1="7912.06" y1="3013.73" x2="8430.29" y2="3581.97" gradientUnits="userSpaceOnUse"><stop stop-color="#FFF8E1"/><stop offset="1" stop-color="#FFCC80"/></linearGradient><linearGradient id="paint11_linear" x1="8081.47" y1="3299.22" x2="8536.41" y2="4160.69" gradientUnits="userSpaceOnUse"><stop stop-color="#FFF8E1"/><stop offset="1" stop-color="#FFCC80"/></linearGradient><filter id="filter0_d" x="37" y="119.843" width="116.145" height="76.276" filterUnits="userSpaceOnUse" color-interpolation-filters="sRGB"><feFlood flood-opacity="0" result="BackgroundImageFix"/><feColorMatrix in="SourceAlpha" values="0 0 0 0 0 0 0 0 0 0 0 0 0 0 0 0 0 0 127 0"/><feOffset dx="5" dy="5"/><feGaussianBlur stdDeviation="10"/><feColorMatrix values="0 0 0 0 0 0 0 0 0 0 0 0 0 0 0 0 0 0 0.2 0"/><feBlend in2="BackgroundImageFix" result="effect1_dropShadow"/><feBlend in="SourceGraphic" in2="effect1_dropShadow" result="shape"/></filter></defs></svg>

<svg width="284" height="216" viewBox="0 0 284 216" fill="none" xmlns="http://www.w3.org/2000/svg">
<path d="M208 138.5C207.993 150.537 204.645 162.341 198.32 172.616C191.996 182.892 182.941 191.244 172.147 196.756C171.661 197.008 171.172 197.251 170.679 197.483L170.577 197.534L170.226 197.701C169.935 197.842 169.65 197.973 169.354 198.105C167.51 198.943 165.617 199.696 163.678 200.363C162.577 200.743 161.464 201.095 160.34 201.419L158.995 201.787C144.027 205.739 128.135 204.368 114.081 197.913C113.505 197.645 112.929 197.372 112.364 197.089L111.345 196.584C101.257 191.344 92.7007 183.618 86.498 174.15C85.8457 173.163 85.2241 172.153 84.633 171.119C84.1064 170.219 83.5968 169.308 83.1042 168.386C78.3168 159.139 75.8272 148.893 75.8428 138.5C75.8428 137.274 75.8768 136.055 75.9448 134.843C76.9001 117.81 84.5204 101.82 97.1848 90.2713C109.849 78.723 126.559 72.5283 143.759 73.0047C160.96 73.4811 177.294 80.5911 189.288 92.8225C201.283 105.054 207.99 121.441 207.985 138.5H208Z" fill="url(#paint0_linear)"/>
<path d="M128.945 136.171C128.945 136.171 114.167 129.225 112.883 119.667C111.599 110.11 112.501 100.976 119.864 98.42C119.864 98.42 124.522 83.6994 141.032 89.6149C157.542 95.5304 154.938 113.292 163.963 115.419C172.987 117.546 189.839 108.589 193.054 119.516C196.269 130.443 185.696 129.776 178.669 139.051C171.642 148.325 182.496 153.195 180.508 159.581C178.521 165.966 171.015 170.356 171.015 170.356L128.945 136.171Z" fill="url(#paint1_linear)"/>
<path d="M108.71 157.136L112.883 168.386H113.337L119.864 139.051C115.742 142.632 108.71 157.136 108.71 157.136Z" fill="url(#paint2_linear)"/>
<path d="M101.382 172.654L98.7374 173.973C95.4558 175.923 90.5537 175.367 90.5537 175.367C93.2035 178.322 108.124 181.667 112.317 181.581L113.092 171.114H103.797L101.382 172.654Z" fill="url(#paint3_linear)"/>
<path d="M170.679 197.468L170.577 197.519L170.226 197.685C169.935 197.827 169.65 197.958 169.354 198.09C167.51 198.928 165.617 199.681 163.678 200.348C162.577 200.728 161.464 201.08 160.34 201.403L158.995 201.772C144.027 205.724 128.135 204.353 114.081 197.898C113.505 197.63 112.929 197.357 112.364 197.074L111.345 196.569C111.487 192.235 111.707 187.047 112.028 181.576C112.231 178.156 112.481 174.625 112.777 171.119C112.853 170.204 112.935 169.295 113.016 168.386C114.219 155.464 116.145 143.481 119.233 139.672L119.279 139.622C119.671 139.087 120.224 138.689 120.858 138.485C125.317 137.434 128.461 137.081 128.955 136.171C129.45 135.262 128.955 133.474 128.955 133.474L129.842 133.352C131.131 133.16 133.633 132.756 136.003 132.15C136.018 132.155 136.034 132.155 136.049 132.15C138.143 131.61 140.125 130.912 141.093 130.074L143.081 135.312C143.081 135.312 158.026 133.438 163.861 139.071C163.897 139.097 163.929 139.128 163.958 139.162C164.019 139.217 164.077 139.276 164.131 139.339C164.478 139.703 164.787 140.1 165.053 140.526C166.954 143.557 168.299 155.721 169.232 168.916C169.446 171.947 169.64 175.079 169.808 178.146C170.195 185.228 170.485 192.088 170.679 197.468Z" fill="url(#paint4_linear)"/>
<path opacity="0.15" d="M170.577 197.534L170.226 197.701C169.935 197.842 169.65 197.973 169.355 198.105C167.51 198.943 165.618 199.696 163.678 200.363C162.577 200.743 161.465 201.095 160.34 201.419C153.456 194.149 150.725 184.713 150.725 184.713L169.798 178.146L170.577 197.534Z" fill="black"/>
<path d="M163.856 139.051C170.76 145.769 172.263 159.874 170.99 170.371C169.716 180.868 167.351 190.699 162.439 190.396C157.527 190.093 140.527 178.403 133.959 172.028L137.796 164.728L151.677 170.462V155.181L163.856 139.051Z" fill="url(#paint5_linear)"/>
<path d="M163.856 139.051C170.76 145.769 172.263 159.874 170.99 170.371C169.716 180.868 167.351 190.699 162.439 190.396C157.527 190.093 140.527 178.403 133.959 172.028L137.796 164.728L151.677 170.462V155.181L163.856 139.051Z" fill="url(#paint6_linear)"/>
<g filter="url(#filter0_d)">
<path d="M128.145 168.386H64.4541V171.119H128.145V168.386Z" fill="url(#paint7_linear)"/>
<path d="M100.435 134.843H52L64.4539 168.386H112.884L100.435 134.843Z" fill="url(#paint8_linear)"/>
</g>
<path d="M78.9971 171.119C78.9971 171.119 87.354 175.266 92.6638 175.367C97.9735 175.468 103.803 171.119 103.803 171.119H78.9971Z" fill="url(#paint9_linear)"/>
<path d="M137.796 164.728C137.796 164.728 130.448 161.051 127.284 160.647C124.119 160.242 114.295 168.386 114.295 168.386H128.155L133.975 172.028L137.796 164.728Z" fill="url(#paint10_linear)"/>
<path d="M140.471 121.789C140.508 124.555 140.712 127.317 141.083 130.059C137.796 131.892 133.949 132.877 129.831 133.357L129.592 130.059L129.449 128.038V127.972C128.656 127.955 127.873 127.783 127.146 127.467C122.173 125.34 121.103 114.944 121.103 114.944C123.095 114.863 125.689 111.302 125.689 111.302C127.141 113.504 133.877 117.758 137.786 116.616C141.694 115.474 141.389 112.741 141.389 112.741C142.095 113.037 142.707 113.519 143.156 114.136C143.605 114.752 143.875 115.479 143.936 116.237C144.145 118.905 140.471 121.789 140.471 121.789Z" fill="url(#paint11_linear)"/>
<path opacity="0.15" d="M137.134 124.724C136.212 126.27 132.039 128.73 129.598 130.069L129.455 128.048C129.608 128.048 129.756 127.998 129.898 127.967C131.891 127.618 133.804 126.914 135.544 125.891C135.565 125.883 135.584 125.871 135.6 125.856C136.124 125.549 136.614 125.19 137.063 124.785L137.134 124.724Z" fill="black"/>
<path opacity="0.15" d="M145.949 168.103L156.762 172.488L151.667 168.845V155.206C151.667 155.206 150.072 167.057 145.949 168.103Z" fill="black"/>
<defs>
<filter id="filter0_d" x="37" y="119.843" width="116.145" height="76.2761" filterUnits="userSpaceOnUse" color-interpolation-filters="sRGB">
<feFlood flood-opacity="0" result="BackgroundImageFix"/>
<feColorMatrix in="SourceAlpha" type="matrix" values="0 0 0 0 0 0 0 0 0 0 0 0 0 0 0 0 0 0 127 0"/>
<feOffset dx="5" dy="5"/>
<feGaussianBlur stdDeviation="10"/>
<feColorMatrix type="matrix" values="0 0 0 0 0 0 0 0 0 0 0 0 0 0 0 0 0 0 0.2 0"/>
<feBlend mode="normal" in2="BackgroundImageFix" result="effect1_dropShadow"/>
<feBlend mode="normal" in="SourceGraphic" in2="effect1_dropShadow" result="shape"/>
</filter>
<linearGradient id="paint0_linear" x1="142.193" y1="80.0936" x2="139.971" y2="209.225" gradientUnits="userSpaceOnUse">
<stop stop-color="white" stop-opacity="0"/>
<stop offset="1" stop-color="#64B5F6" stop-opacity="0.6"/>
</linearGradient>
<linearGradient id="paint1_linear" x1="112.399" y1="129.281" x2="193.655" y2="129.281" gradientUnits="userSpaceOnUse">
<stop stop-color="#EF9A9A"/>
<stop offset="1" stop-color="#D81B60"/>
</linearGradient>
<linearGradient id="paint2_linear" x1="113.683" y1="154.883" x2="111.274" y2="182.514" gradientUnits="userSpaceOnUse">
<stop stop-color="#7E57C2"/>
<stop offset="1" stop-color="#4527A0"/>
</linearGradient>
<linearGradient id="paint3_linear" x1="6850.02" y1="2599.43" x2="6826.49" y2="3175.43" gradientUnits="userSpaceOnUse">
<stop stop-color="#7E57C2"/>
<stop offset="1" stop-color="#4527A0"/>
</linearGradient>
<linearGradient id="paint4_linear" x1="20378.2" y1="14930" x2="24505.7" y2="22564.9" gradientUnits="userSpaceOnUse">
<stop stop-color="#7E57C2"/>
<stop offset="1" stop-color="#4527A0"/>
</linearGradient>
<linearGradient id="paint5_linear" x1="13997.4" y1="9842.53" x2="17661.5" y2="15998.1" gradientUnits="userSpaceOnUse">
<stop stop-color="#7E57C2"/>
<stop offset="1" stop-color="#4527A0"/>
</linearGradient>
<linearGradient id="paint6_linear" x1="155.758" y1="144.749" x2="150.038" y2="191.812" gradientUnits="userSpaceOnUse">
<stop offset="0.14" stop-color="#7E57C2" stop-opacity="0"/>
<stop offset="0.26" stop-color="#724DBB" stop-opacity="0.21"/>
<stop offset="0.48" stop-color="#5F3DAF" stop-opacity="0.55"/>
<stop offset="0.66" stop-color="#5131A7" stop-opacity="0.79"/>
<stop offset="0.81" stop-color="#482AA2" stop-opacity="0.94"/>
<stop offset="0.91" stop-color="#4527A0"/>
</linearGradient>
<linearGradient id="paint7_linear" x1="64.4541" y1="169.75" x2="128.145" y2="169.75" gradientUnits="userSpaceOnUse">
<stop stop-color="#D2D4D5"/>
<stop offset="1" stop-color="#AAACAE"/>
</linearGradient>
<linearGradient id="paint8_linear" x1="574.989" y1="4270.71" x2="4179.02" y2="8404.05" gradientUnits="userSpaceOnUse">
<stop stop-color="#D2D4D5"/>
<stop offset="1" stop-color="#AAACAE"/>
</linearGradient>
<linearGradient id="paint9_linear" x1="80.5767" y1="166.557" x2="100.884" y2="175.338" gradientUnits="userSpaceOnUse">
<stop stop-color="#FFF8E1"/>
<stop offset="1" stop-color="#FFCC80"/>
</linearGradient>
<linearGradient id="paint10_linear" x1="7912.06" y1="3013.73" x2="8430.29" y2="3581.97" gradientUnits="userSpaceOnUse">
<stop stop-color="#FFF8E1"/>
<stop offset="1" stop-color="#FFCC80"/>
</linearGradient>
<linearGradient id="paint11_linear" x1="8081.47" y1="3299.22" x2="8536.41" y2="4160.69" gradientUnits="userSpaceOnUse">
<stop stop-color="#FFF8E1"/>
<stop offset="1" stop-color="#FFCC80"/>
</linearGradient>
</defs>
</svg>
